X:14
T:New Years Gift. Tho24CDs1792.14, The
M:6/8
L:1/8
Q:3/8=120
C:"86"
B:Thompson 24 CDs 1792
Z:Village Music Project, Chris Partington, 1999 & 2017
W:Hey contrary sides .| Hey (...?...) your own sides:| Lead down the
W:middle,up again & cast off :|. Allemande :|
K:D
|:d3cBc|cAcd3|BGB AFD|EFG FED|
d3cBc|cAcd3|dfa ecA|B3A3:|
|:dfa agf|edcd2c|B2dA2d|GAGF3|
dfa agf|edcd2A|d2fB2d|cAcd3:|

